X:420
T: Jimmy Doyle's #3
S: "Johnny O'Leary of Sliabh Luachra" (#249)
Z: B.Black
L: 1/8
M: 2/4
Q: 270
R: polka
K: D
d2 ee/d/|ce A2|dA/d/ ef|ge f/g/f/e/|
d2 e/f/e/d/|ce AB/A/|a>f ge|d2 dB/c/|
d2 e/f/e/d/|cA AB/c/|dc/d/ ef|g2 f/g/f/e/|
d2 e/f/e/d/|ce AB/A/|af/a/ ge|d2 d2||
f2 g/f/d|g2 a/g/e|f2 fe/f/|eA BA|
ff/e/ fd//e//f/|g>f ge|fa ge|d2 d2 :|
